packages/katcn/src/icons/svg/noSound-solid.svg

<svg width="24" height="25" viewBox="0 0 24 25" fill="none" xmlns="http://www.w3.org/2000/svg">
<path d="M21.7 20.508L16.7 15.508L8.1 6.90801L3.7 2.50801C3.3 2.10801 2.7 2.10801 2.3 2.50801C1.9 2.90801 1.9 3.50801 2.3 3.90801L5.8 7.40801C5.7 7.40801 5.6 7.50801 5.6 7.50801C3.8 8.50801 2.7 10.208 2.7 12.208C2.7 13.108 3 14.108 3.5 14.908C4 15.708 4.7 16.408 5.6 16.808C7.9 18.008 10.2 19.608 12.5 21.508C13 21.908 13.6 22.108 14.3 22.108C14.7 22.108 15.1 22.008 15.5 21.808C16.5 21.308 17.1 20.408 17.1 19.308V18.508L20.4 21.808C20.6 22.008 20.9 22.108 21.1 22.108C21.3 22.108 21.6 22.008 21.8 21.808C22.1 21.508 22.1 20.908 21.7 20.508Z" fill="black"/>
<path d="M15.3 11.908C15.5 12.108 15.7 12.208 16 12.208C16.1 12.208 16.3 12.208 16.4 12.108C16.8 12.008 17 11.608 17 11.208V5.008C17 3.908 16.4 3.008 15.4 2.508C14.4 2.008 13.3 2.208 12.4 2.908C11.6 3.608 10.7 4.208 9.9 4.808C9.6 5.008 9.5 5.308 9.5 5.608C9.5 5.908 9.6 6.208 9.8 6.408L15.3 11.908Z" fill="black"/>
</svg>

<svg xmlns="http://www.w3.org/2000/svg" fill="none" viewBox="0 0 24 25"><path fill="#000" d="m21.7 20.508-5-5-8.6-8.6-4.4-4.4c-.4-.4-1-.4-1.4 0s-.4 1 0 1.4l3.5 3.5c-.1 0-.2.1-.2.1-1.8 1-2.9 2.7-2.9 4.7 0 .9.3 1.9.8 2.7s1.2 1.5 2.1 1.9c2.3 1.2 4.6 2.8 6.9 4.7q.75.6 1.8.6.6 0 1.2-.3c1-.5 1.6-1.4 1.6-2.5v-.8l3.3 3.3c.2.2.5.3.7.3s.5-.1.7-.3c.3-.3.3-.9-.1-1.3m-6.4-8.6c.2.2.4.3.7.3.1 0 .3 0 .4-.1.4-.1.6-.5.6-.9v-6.2c0-1.1-.6-2-1.6-2.5s-2.1-.3-3 .4c-.8.7-1.7 1.3-2.5 1.9-.3.2-.4.5-.4.8s.1.6.3.8z"/></svg>
